X: 34413
T: Richard Dwyer's
R: reel
M: 4/4
K: Dmajor
|:d2 fd cdec|defd A2 BA|GB ~B2 Ad~d2|gfed cdec|
d2 fd cdec|defd A2 BA|GB ~B2 Ad~d2|1 cdec d2 (3ABc:|2 cdec d2 e2||
|:fB ~B2 cdcB|Aaag agfe|fB ~B2 cdcB|Aaag agfe|
d2 fd cdec|defd A2 BA|GB ~B2 Ad~d2|1 cdec d2 e2:|2 cdec d2 (3ABc||

